icons/svgs/user-group-outline.svg

<svg width="24" height="24" viewBox="0 0 24 24" fill="none" xmlns="http://www.w3.org/2000/svg">
<path d="M0.0375 19.9559C0.2625 18.1956 1.125 16.6308 2.4 15.5354C3.5625 14.5183 5.0625 13.8924 6.675 13.8924H8.4H10.0875C11.7375 13.8924 13.2 14.5183 14.3625 15.5354C15.6375 16.6308 16.5 18.1956 16.725 19.9559C16.7625 20.2689 16.7625 20.5819 16.7625 20.8948C16.7625 21.5207 16.275 22.0293 15.675 22.0293H14.925H1.8375H1.0875C0.4875 22.0293 0 21.5207 0 20.8948C0 20.5819 0 20.2689 0.0375 19.9559ZM3.6 7.00729C3.6 5.2469 4.5 3.60387 6 2.70411C7.4625 1.80436 9.3 1.80436 10.8 2.70411C12.2625 3.60387 13.2 5.2469 13.2 7.00729C13.2 8.8068 12.2625 10.4498 10.8 11.3496C9.3 12.2493 7.4625 12.2493 6 11.3496C4.5 10.4498 3.6 8.8068 3.6 7.00729ZM11.4 7.00729C11.4 5.91194 10.8 4.89482 9.9 4.30803C8.9625 3.76035 7.8 3.76035 6.9 4.30803C5.9625 4.89482 5.4 5.91194 5.4 7.00729C5.4 8.14177 5.9625 9.15888 6.9 9.74568C7.8 10.2934 8.9625 10.2934 9.9 9.74568C10.8 9.15888 11.4 8.14177 11.4 7.00729ZM6.675 15.7701C4.875 15.7701 3.3 16.7872 2.475 18.2738C2.1375 18.8606 1.9125 19.4865 1.8375 20.1515H3.675H13.125H14.925C14.925 20.0733 14.925 19.9559 14.8875 19.8386C14.775 19.2909 14.5875 18.7824 14.2875 18.2738C13.4625 16.7872 11.8875 15.7701 10.0875 15.7701H6.675ZM22.8375 22.0293H17.7C17.8875 21.7163 18 21.3251 18 20.8948C18 18.352 16.875 16.0831 15.15 14.5574C15.3 14.5574 15.45 14.5183 15.6375 14.5183H17.925C21.2625 14.5183 24 17.374 24 20.8557C24 21.5207 23.475 22.0293 22.8375 22.0293ZM16.2 12.0146C15.0375 12.0146 13.9875 11.5452 13.2 10.7628C13.95 9.70656 14.4 8.4156 14.4 7.00729C14.4 5.99018 14.1375 4.97306 13.6875 4.11243C14.4 3.60387 15.2625 3.25179 16.2 3.25179C18.4875 3.25179 20.4 5.2469 20.4 7.63321C20.4 10.0586 18.4875 12.0146 16.2 12.0146Z" fill="black"/>
</svg>

<svg xmlns="http://www.w3.org/2000/svg" width="24" height="24" fill="currentColor" class="icon-user-group-outline" viewBox="0 0 24 24">
  <mask id="a" width="24" height="21" x="0" y="2" maskUnits="userSpaceOnUse" style="mask-type:alpha">
    <path d="M.038 19.956a7 7 0 0 1 2.362-4.42c1.163-1.018 2.663-1.644 4.275-1.644h3.413c1.65 0 3.112.626 4.275 1.643a7 7 0 0 1 2.362 4.42c.037.314.037.627.037.94 0 .626-.487 1.134-1.087 1.134H1.088c-.6 0-1.088-.508-1.088-1.134 0-.313 0-.626.038-.94M3.6 7.007c0-1.76.9-3.403 2.4-4.303 1.463-.9 3.3-.9 4.8 0a5.09 5.09 0 0 1 2.4 4.303c0 1.8-.937 3.443-2.4 4.343-1.5.9-3.338.9-4.8 0-1.5-.9-2.4-2.543-2.4-4.343m7.8 0c0-1.095-.6-2.112-1.5-2.699-.937-.548-2.1-.548-3 0a3.18 3.18 0 0 0-1.5 2.7 3.2 3.2 0 0 0 1.5 2.738c.9.547 2.063.547 3 0 .9-.587 1.5-1.604 1.5-2.739M6.675 15.77c-1.8 0-3.375 1.017-4.2 2.504a4.8 4.8 0 0 0-.638 1.877h13.088c0-.078 0-.195-.038-.312a5 5 0 0 0-.6-1.565c-.825-1.487-2.4-2.504-4.2-2.504zm16.162 6.26H17.7c.188-.314.3-.705.3-1.135a8.46 8.46 0 0 0-2.85-6.338c.15 0 .3-.039.487-.039h2.288c3.337 0 6.075 2.856 6.075 6.338a1.16 1.16 0 0 1-1.163 1.173M16.2 12.014a4.23 4.23 0 0 1-3-1.252 6.46 6.46 0 0 0 1.2-3.756 6.3 6.3 0 0 0-.713-2.895c.713-.508 1.576-.86 2.513-.86 2.288 0 4.2 1.995 4.2 4.381 0 2.426-1.912 4.382-4.2 4.382"/>
  </mask>
  <g mask="url(#a)">
    <path d="M0 0h24v24H0z"/>
  </g>
</svg>
